dist/img/sprites/main_arrow.svg

<svg width="362" height="36" viewBox="0 0 362 36" fill="none" xmlns="http://www.w3.org/2000/svg">
<path d="M182 1.00008L182 0.500086L182 1.00008ZM0.000364591 33.6204L3.69676 29.1853L5.68947 34.604L0.000364591 33.6204ZM361 33.6183C360.865 34.0997 360.865 34.0997 360.865 34.0997C360.865 34.0996 360.865 34.0996 360.865 34.0996C360.865 34.0996 360.865 34.0996 360.865 34.0996C360.864 34.0995 360.864 34.0994 360.864 34.0993C360.863 34.0991 360.862 34.0987 360.86 34.0983C360.857 34.0973 360.852 34.0959 360.845 34.0941C360.832 34.0904 360.812 34.0848 360.785 34.0773C360.732 34.0625 360.653 34.0403 360.548 34.011C360.338 33.9525 360.025 33.8655 359.614 33.752C358.792 33.5249 357.579 33.1916 356.011 32.7667L356.272 31.8015C357.842 32.2268 359.057 32.5606 359.881 32.7881C360.292 32.9018 360.606 32.989 360.817 33.0478C360.922 33.0772 361.002 33.0994 361.055 33.1144C361.082 33.1219 361.102 33.1275 361.115 33.1313C361.122 33.1332 361.127 33.1346 361.13 33.1355C361.132 33.136 361.133 33.1364 361.134 33.1366C361.135 33.1367 361.135 33.1368 361.135 33.1369C361.135 33.1369 361.135 33.1369 361.136 33.137C361.136 33.137 361.136 33.137 361.136 33.137C361.136 33.137 361.136 33.137 361 33.6183ZM346.211 30.1601C343.301 29.3992 340.018 28.5512 336.415 27.6374L336.661 26.6681C340.266 27.5826 343.552 28.4311 346.464 29.1926L346.211 30.1601ZM326.568 25.1769C323.446 24.4086 320.167 23.6126 316.755 22.7982L316.987 21.8255C320.402 22.6405 323.683 23.437 326.807 24.2058L326.568 25.1769ZM306.885 20.4806C303.674 19.739 300.376 18.9898 297.008 18.2394L297.225 17.2633C300.596 18.0144 303.896 18.7641 307.11 19.5063L306.885 20.4806ZM287.103 16.0745C283.843 15.3763 280.537 14.6825 277.196 13.9981L277.397 13.0184C280.74 13.7035 284.05 14.3979 287.312 15.0967L287.103 16.0745ZM267.258 12.0118C263.956 11.3689 260.634 10.7398 257.306 10.1293L257.486 9.14566C260.819 9.75685 264.144 10.3866 267.449 11.0302L267.258 12.0118ZM247.332 8.36187C243.992 7.79159 240.658 7.24485 237.342 6.72646L237.496 5.73846C240.817 6.25762 244.156 6.80513 247.501 7.37613L247.332 8.36187ZM227.321 5.24181C223.935 4.76933 220.583 4.33258 217.277 3.93692L217.396 2.94401C220.708 3.34051 224.067 3.77811 227.459 4.25141L227.321 5.24181ZM207.228 2.85088C203.782 2.52145 200.408 2.24629 197.122 2.03214L197.188 1.03426C200.484 1.24914 203.868 1.52513 207.323 1.85542L207.228 2.85088ZM187.032 1.5656C185.32 1.5223 183.642 1.50009 182 1.50008L182 0.500086C183.651 0.500087 185.338 0.522425 187.058 0.56592L187.032 1.5656ZM182 1.50008C180.274 1.50008 178.552 1.51021 176.835 1.53011L176.823 0.530175C178.544 0.510234 180.27 0.500085 182 0.500086L182 1.50008ZM166.529 1.76603C163.073 1.88373 159.64 2.03899 156.233 2.22881L156.177 1.23036C159.591 1.04015 163.032 0.884564 166.495 0.766616L166.529 1.76603ZM145.951 2.90972C142.492 3.17485 139.063 3.47355 135.669 3.80249L135.573 2.80716C138.973 2.47758 142.408 2.1783 145.875 1.91264L145.951 2.90972ZM125.41 4.8985C121.957 5.30128 118.545 5.73315 115.18 6.19035L115.045 5.19945C118.417 4.74142 121.834 4.30876 125.294 3.90523L125.41 4.8985ZM104.987 7.67077C101.534 8.20442 98.1377 8.76207 94.8014 9.33931L94.631 8.35395C97.973 7.77571 101.376 7.2171 104.834 6.6825L104.987 7.67077ZM84.647 11.1886C81.2068 11.8463 77.8417 12.5213 74.5575 13.2082L74.3528 12.2293C77.6425 11.5413 81.0132 10.8652 84.4592 10.2064L84.647 11.1886ZM64.456 15.4116C61.0105 16.1941 57.6722 16.9842 54.4488 17.7743L54.2108 16.8031C57.4394 16.0116 60.7833 15.2203 64.2345 14.4364L64.456 15.4116ZM44.4242 20.3235C40.9299 21.2444 37.6072 22.1543 34.4693 23.041L34.1974 22.0787C37.3408 21.1904 40.6691 20.279 44.1693 19.3565L44.4242 20.3235ZM24.5697 25.9369C20.9329 27.038 17.6568 28.0724 14.7731 29.0103L14.4638 28.0594C17.3537 27.1194 20.6363 26.083 24.2799 24.9798L24.5697 25.9369ZM4.9593 32.3363C4.76446 32.4054 4.57536 32.4726 4.39197 32.5381L4.05593 31.5962C4.23992 31.5306 4.42969 31.4631 4.62513 31.3938L4.9593 32.3363ZM182 1.00008L182 8.39619e-05L182 1.00008ZM0.000364591 33.6204L7.40435 24.7595L11.376 35.602L0.000364591 33.6204ZM361 33.6183C360.73 34.581 360.73 34.581 360.73 34.581C360.73 34.581 360.73 34.581 360.73 34.581C360.729 34.581 360.729 34.5809 360.729 34.5809C360.729 34.5809 360.729 34.5808 360.728 34.5807C360.728 34.5804 360.726 34.5801 360.725 34.5796C360.722 34.5787 360.717 34.5773 360.71 34.5755C360.697 34.5718 360.677 34.5662 360.651 34.5588C360.598 34.544 360.519 34.5219 360.414 34.4927C360.204 34.4342 359.892 34.3473 359.481 34.2339C358.66 34.007 357.447 33.6739 355.88 33.2493L356.403 31.3189C357.973 31.7445 359.19 32.0784 360.014 32.3061C360.426 32.42 360.74 32.5073 360.951 32.5661C361.056 32.5956 361.136 32.6179 361.19 32.6329C361.217 32.6404 361.237 32.6461 361.25 32.6499C361.257 32.6518 361.262 32.6532 361.266 32.6542C361.267 32.6547 361.269 32.655 361.27 32.6553C361.27 32.6554 361.27 32.6555 361.271 32.6555C361.271 32.6556 361.271 32.6556 361.271 32.6556C361.271 32.6556 361.271 32.6556 361.271 32.6556C361.271 32.6557 361.271 32.6557 361 33.6183ZM346.084 30.6438C343.176 29.8832 339.893 29.0356 336.292 28.1221L336.784 26.1835C340.39 27.0983 343.677 27.9471 346.59 28.7089L346.084 30.6438ZM326.448 25.6624C323.328 24.8944 320.05 24.0986 316.638 23.2845L317.103 21.3391C320.519 22.1544 323.801 22.9513 326.926 23.7203L326.448 25.6624ZM306.772 20.9678C303.562 20.2265 300.266 19.4776 296.899 18.7274L297.334 16.7753C300.706 17.5266 304.008 18.2767 307.222 19.0191L306.772 20.9678ZM286.998 16.5634C283.74 15.8655 280.435 15.172 277.096 14.4879L277.497 12.5286C280.842 13.2139 284.153 13.9087 287.417 14.6078L286.998 16.5634ZM267.163 12.5026C263.862 11.86 260.542 11.2312 257.216 10.621L257.576 8.65386C260.911 9.2654 264.238 9.89552 267.545 10.5394L267.163 12.5026ZM247.248 8.85473C243.91 8.28483 240.578 7.73847 237.265 7.22046L237.573 5.24446C240.897 5.764 244.238 6.31189 247.585 6.88327L247.248 8.85473ZM227.252 5.73701C223.869 5.26495 220.52 4.82862 217.218 4.43337L217.455 2.44755C220.771 2.84447 224.133 3.28249 227.528 3.75621L227.252 5.73701ZM207.18 3.34861C203.739 3.0196 200.369 2.74488 197.09 2.53108L197.22 0.535319C200.522 0.750555 203.911 1.02697 207.37 1.35769L207.18 3.34861ZM187.02 2.06544C185.312 2.02224 183.637 2.00009 182 2.00009L182 8.39619e-05C183.655 8.47466e-05 185.347 0.0224858 187.07 0.0660782L187.02 2.06544ZM182 2.00009C180.276 2.00008 178.556 2.0102 176.841 2.03007L176.817 0.0302072C178.54 0.010243 180.268 8.17691e-05 182 8.39619e-05L182 2.00009ZM166.546 2.26575C163.094 2.38332 159.664 2.53842 156.261 2.72803L156.149 0.731129C159.567 0.540731 163.011 0.384978 166.478 0.266906L166.546 2.26575ZM145.989 3.40826C142.533 3.67312 139.108 3.97153 135.718 4.30016L135.525 2.30949C138.928 1.9796 142.367 1.68002 145.837 1.4141L145.989 3.40826ZM125.468 5.39513C122.018 5.79754 118.61 6.22901 115.247 6.6858L114.978 4.704C118.353 4.24556 121.773 3.81251 125.236 3.4086L125.468 5.39513ZM105.063 8.1649C101.614 8.69808 98.2201 9.25525 94.8867 9.83199L94.5457 7.86127C97.8906 7.28254 101.296 6.72344 104.757 6.18838L105.063 8.1649ZM84.7409 11.6797C81.3036 12.3368 77.9414 13.0113 74.6599 13.6976L74.2505 11.7399C77.5429 11.0514 80.9164 10.3746 84.3654 9.71527L84.7409 11.6797ZM64.5667 15.8992C61.1241 16.6811 57.7885 17.4705 54.5679 18.2599L54.0917 16.3174C57.3231 15.5253 60.6697 14.7333 64.1237 13.9488L64.5667 15.8992ZM44.5516 20.807C41.0602 21.7272 37.7405 22.6363 34.6053 23.5222L34.0615 21.5975C37.2076 20.7085 40.5388 19.7963 44.0419 18.8731L44.5516 20.807ZM24.7146 26.4154C21.0812 27.5155 17.8083 28.5488 14.9277 29.4858L14.3091 27.5839C17.2021 26.6429 20.488 25.6055 24.1351 24.5012L24.7146 26.4154Z" fill="white"/>
</svg>

<svg width="362" height="36" viewBox="0 0 362 36" fill="none" xmlns="http://www.w3.org/2000/svg"><path d="M182 1V.5 1zM0 33.62l3.697-4.435 1.992 5.419L0 33.62zm361-.002l-.135.482h-.001l-.004-.002a10.857 10.857 0 00-.075-.021l-.237-.066-.934-.259c-.822-.227-2.035-.56-3.603-.985l.261-.966a769.53 769.53 0 014.545 1.247l.238.066a5.362 5.362 0 01.075.022h.005l.001.001-.136.481zm-14.789-3.458c-2.91-.76-6.193-1.609-9.796-2.523l.246-.969a1379.5 1379.5 0 019.803 2.525l-.253.967zm-19.643-4.983c-3.122-.768-6.401-1.564-9.813-2.379l.232-.972c3.415.814 6.696 1.611 9.82 2.38l-.239.97zm-19.683-4.696a1316.15 1316.15 0 00-9.877-2.242l.217-.976c3.371.751 6.671 1.501 9.885 2.243l-.225.975zm-19.782-4.407c-3.26-.698-6.566-1.392-9.907-2.076l.201-.98c3.343.685 6.653 1.38 9.915 2.079l-.209.978zm-19.845-4.062a932.575 932.575 0 00-9.952-1.883l.18-.983c3.333.61 6.658 1.24 9.963 1.884l-.191.982zm-19.926-3.65a735.38 735.38 0 00-9.99-1.636l.154-.988c3.321.52 6.66 1.067 10.005 1.638l-.169.986zm-20.011-3.12c-3.386-.473-6.738-.91-10.044-1.305l.119-.993c3.312.397 6.671.834 10.063 1.307l-.138.99zM207.228 2.85c-3.446-.33-6.82-.605-10.106-.819l.066-.998c3.296.215 6.68.491 10.135.821l-.095.996zm-20.196-1.285A195.95 195.95 0 00182 1.499v-1c1.651 0 3.338.022 5.058.066l-.026 1zM182 1.5c-1.726 0-3.448.01-5.165.03l-.012-1C178.544.51 180.27.5 182 .5v1zm-15.471.266a476.89 476.89 0 00-10.296.463l-.056-.999c3.414-.19 6.855-.345 10.318-.463l.034.999zM145.951 2.91c-3.459.265-6.888.564-10.282.892l-.096-.995c3.4-.33 6.835-.629 10.302-.894l.076.997zM125.41 4.899c-3.453.402-6.865.834-10.23 1.291l-.135-.99c3.372-.459 6.789-.891 10.249-1.295l.116.994zM104.987 7.67a573.81 573.81 0 00-10.186 1.668l-.17-.985a576.363 576.363 0 0110.203-1.671l.153.988zm-20.34 3.518c-3.44.657-6.805 1.332-10.09 2.02l-.204-.98c3.29-.688 6.66-1.364 10.106-2.023l.188.983zm-20.191 4.223a603.001 603.001 0 00-10.007 2.362l-.238-.97a603.785 603.785 0 0110.023-2.368l.222.976zm-20.032 4.911a581.858 581.858 0 00-9.955 2.718l-.272-.962c3.144-.889 6.472-1.8 9.972-2.723l.255.967zM24.57 25.938a502.49 502.49 0 00-9.797 3.073l-.31-.95a503.16 503.16 0 019.817-3.08l.29.957zm-19.61 6.4c-.196.068-.385.136-.568.201l-.336-.942.57-.202.333.942zM182 1V0v1zM0 33.62l7.404-8.86 3.972 10.842L0 33.62zm361-.002l-.27.963h-.002l-.003-.001a.415.415 0 00-.015-.005l-.059-.016-.237-.066-.933-.26c-.821-.226-2.034-.56-3.601-.984l.523-1.93a781.751 781.751 0 014.847 1.33l.016.005.004.001h.001l-.271.963zm-14.916-2.974c-2.908-.76-6.191-1.608-9.792-2.522l.492-1.939c3.606.915 6.893 1.764 9.806 2.526l-.506 1.935zm-19.636-4.982c-3.12-.768-6.398-1.563-9.81-2.377l.465-1.946c3.416.815 6.698 1.612 9.823 2.381l-.478 1.942zm-19.676-4.694c-3.21-.741-6.506-1.49-9.873-2.24l.435-1.953c3.372.752 6.674 1.502 9.888 2.244l-.45 1.949zm-19.774-4.405c-3.258-.697-6.563-1.391-9.902-2.075l.401-1.96c3.345.686 6.656 1.38 9.92 2.08l-.419 1.955zm-19.835-4.06a936.384 936.384 0 00-9.947-1.882l.36-1.967c3.335.611 6.662 1.242 9.969 1.885l-.382 1.964zm-19.915-3.648a723.15 723.15 0 00-9.983-1.635l.308-1.976a720.83 720.83 0 0110.012 1.64l-.337 1.97zm-19.996-3.118a519.157 519.157 0 00-10.034-1.304l.237-1.985c3.316.396 6.678.834 10.073 1.308l-.276 1.981zM207.18 3.349a335.676 335.676 0 00-10.09-.818l.13-1.996c3.302.216 6.691.492 10.15.823l-.19 1.99zm-20.16-1.284A198.734 198.734 0 00182 2V0c1.655 0 3.347.022 5.07.066l-.05 2zM182 2c-1.724 0-3.444.01-5.159.03l-.024-2C178.54.01 180.268 0 182 0v2zm-15.454.266a470.31 470.31 0 00-10.285.462l-.112-1.997c3.418-.19 6.862-.346 10.329-.464l.068 1.999zm-20.557 1.142a517.42 517.42 0 00-10.271.892l-.193-1.99c3.403-.33 6.842-.63 10.312-.896l.152 1.994zm-20.521 1.987c-3.45.403-6.858.834-10.221 1.29l-.269-1.981a551.64 551.64 0 0110.258-1.295l.232 1.986zm-20.405 2.77c-3.449.533-6.843 1.09-10.176 1.667l-.341-1.97a564.91 564.91 0 0110.211-1.674l.306 1.977zM84.741 11.68a586.8 586.8 0 00-10.081 2.018l-.41-1.958a597.7 597.7 0 0110.115-2.025l.376 1.965zM64.567 15.9a603.234 603.234 0 00-10 2.36l-.475-1.943a604.796 604.796 0 0110.032-2.368l.443 1.95zm-20.015 4.907c-3.492.92-6.812 1.83-9.947 2.715l-.543-1.924a584.308 584.308 0 019.98-2.725l.51 1.934zm-19.837 5.608a501.433 501.433 0 00-9.787 3.07l-.619-1.901a504.005 504.005 0 019.826-3.083l.58 1.914z" fill="#fff"/></svg>
